X: 101
T: Sabato sancto. Lectio secunda
C: Gaspar van Weerbeke
%%abc-version 2.0
%%abcx-abcm2ps-target-version 5.9.1 (29 Sep 2008)
%%abc-creator hum2abc beta
%%abcx-conversion-date 2022/03/06 13:06:00
%%abc-copyright Copyright 2018, Pavanello, Agnese
%%abc-edited-by Zybina, Karina
%%humdrum-veritas 2637707211
%%humdrum-veritas-data 4180704373
%%linebreak <none>
%%barnumbers 0
L: 1/4
M: 2/2
N: Derived from Gas0501e-Sabato_sancto_Lectio_secunda.krn
%%staves [1 2 3 4]
V: 1 clef=treble
V: 2 clef=treble-8
V: 3 clef=treble-8
V: 4 clef=bass
K: C
[V:1] A4- | 
[V:2] A4 | 
[V:3] A4- | 
[V:4] A,4- | 
[V:1] A4- | 
[V:2] c2d2 | 
[V:3] A4 | 
[V:4] A,2D,2 | 
[V:1] A4- | 
[V:2] f4 | 
[V:3] d4 | 
[V:4] D,4 | 
[V:1] A4 | 
[V:2] f3e | 
[V:3] c4 | 
[V:4] F,4 | 
[V:1] _B3A | 
[V:2] d4 | 
[V:3] G4 | 
[V:4] z2G,2 | 
[V:1] G2F2 | 
[V:2] e2f2- | 
[V:3] c2A3/_B/ | 
[V:4] C,2D,2 | 
[V:1] G4 | 
[V:2] fe/d/e2 | 
[V:3] c4 | 
[V:4] C,4 | 
[V:1] F4 ||  
[V:2] f4 ||  
[V:3] c4 ||  
[V:4] F,4 ||  
[V:1] F4 | 
[V:2] c4 | 
[V:3] A4 | 
[V:4] F,4 | 
[V:1] G4 | 
[V:2] e4 | 
[V:3] G4 | 
[V:4] C,4 | 
[V:1] A4 | 
[V:2] f4 | 
[V:3] F4 | 
[V:4] F,4 | 
[V:1] A2A2 | 
[V:2] c2f2 | 
[V:3] c2c2 | 
[V:4] F,2A,2 | 
[V:1] _B4- | 
[V:2] g4- | 
[V:3] d4- | 
[V:4] G,4- | 
[V:1] B2A2 | 
[V:2] g2e2 | 
[V:3] d2c2 | 
[V:4] G,2A,2 | 
[V:1] G4 | 
[V:2] e4 | 
[V:3] _B4 | 
[V:4] E,4 | 
[V:1] A4 | 
[V:2] c2f2 | 
[V:3] A4 | 
[V:4] F,2D,2 | 
[V:1] A4 | 
[V:2] e4 | 
[V:3] A4 | 
[V:4] A,4 | 
[V:1] z2F2 | 
[V:2] z2f2 | 
[V:3] z2A2 | 
[V:4] z2F,2 | 
[V:1] G4 | 
[V:2] e4 | 
[V:3] c4 | 
[V:4] C,4 | 
[V:1] G2A2- | 
[V:2] e2A2- | 
[V:3] c2c2- | 
[V:4] E,2F,2- | 
[V:1] A2G2 | 
[V:2] A2e2 | 
[V:3] c2c2 | 
[V:4] F,2C,2 | 
[V:1] A2_B2- | 
[V:2] f3e/d/ | 
[V:3] A2G2- | 
[V:4] z4 | 
[V:1] B2A2 | 
[V:2] e2f2 | 
[V:3] G2F2 | 
[V:4] z2C2 | 
[V:1] A2z2 | 
[V:2] f2z2 | 
[V:3] F2z2 | 
[V:4] C2A,2 | 
[V:1] A2G2 | 
[V:2] f2e2 | 
[V:3] F2C2 | 
[V:4] C2C2 | 
[V:1] [M:3/2]F2!fermata!E4 | 
[V:2] [M:3/2]d2!fermata!c4 | 
[V:3] [M:3/2]F2!fermata!C4 | 
[V:4] [M:3/2]A,2!fermata!G,4 | 
[V:1] [M:2/2]z2G2- | 
[V:2] [M:2/2]e3e | 
[V:3] [M:2/2]z2c2- | 
[V:4] [M:2/2]z2C,2- | 
[V:1] GGG2 | 
[V:2] e2e2- | 
[V:3] ccc2 | 
[V:4] C,C,C,2 | 
[V:1] G3A | 
[V:2] e4 | 
[V:3] _B3A | 
[V:4] E,3F, | 
[V:1] G2F2 | 
[V:2] E2F2 | 
[V:3] _B2_B2 | 
[V:4] E,2D,2 | 
[V:1] E2F2 | 
[V:2] GGc2 | 
[V:3] c2A2 | 
[V:4] C,2z2 | 
[V:1] G3G | 
[V:2] d3d | 
[V:3] _B3_B | 
[V:4] z4 | 
[V:1] G2_B2- | 
[V:2] d2d2 | 
[V:3] _B3A | 
[V:4] z4 | 
[V:1] BAG2 | 
[V:2] d2e2 | 
[V:3] GFE2 | 
[V:4] z2C,2 | 
[V:1] F2G2 | 
[V:2] zf2e | 
[V:3] A2G2 | 
[V:4] D,F,C,2 | 
[V:1] A4 | 
[V:2] f4 | 
[V:3] F2c2- | 
[V:4] F,4 | 
[V:1] G2F2- | 
[V:2] e2c2- | 
[V:3] c_BA2 | 
[V:4] C,2F,2 | 
[V:1] F2E2 | 
[V:2] c2c2 | 
[V:3] G4 | 
[V:4] C,4 | 
[V:1] F4 ||  
[V:2] c4 ||  
[V:3] F4 ||  
[V:4] F,4 ||  
[V:1] A4- | 
[V:2] c4 | 
[V:3] F4 | 
[V:4] F,4- | 
[V:1] A4 | 
[V:2] f4- | 
[V:3] D4 | 
[V:4] F,4 | 
[V:1] A4 | 
[V:2] f4 | 
[V:3] F4 | 
[V:4] D,4 | 
[V:1] G4 | 
[V:2] _B2c2 | 
[V:3] G4 | 
[V:4] _E,4 | 
[V:1] F4- | 
[V:2] d4 | 
[V:3] A4 | 
[V:4] D,4 | 
[V:1] F4 | 
[V:2] f4- | 
[V:3] _B4 | 
[V:4] _B,,4- | 
[V:1] _B4 | 
[V:2] f4- | 
[V:3] d4- | 
[V:4] B,,4 | 
[V:1] A4- | 
[V:2] f4- | 
[V:3] d4 | 
[V:4] D,3E, | 
[V:1] A4 ||  
[V:2] f4 ||  
[V:3] c4 ||  
[V:4] F,4 ||  
[V:1] A4- | 
[V:2] c4 | 
[V:3] F4- | 
[V:4] z4 | 
[V:1] A4 | 
[V:2] d4 | 
[V:3] F4 | 
[V:4] z4 | 
[V:1] G4 | 
[V:2] e4 | 
[V:3] E4 | 
[V:4] C,4 | 
[V:1] A3G | 
[V:2] c2c2 | 
[V:3] F2A2- | 
[V:4] F,3E, | 
[V:1] F2E2- | 
[V:2] d2e2 | 
[V:3] A_Bc2- | 
[V:4] D,2A,2- | 
[V:1] E2F2 | 
[V:2] c2d2 | 
[V:3] c_BA2 | 
[V:4] A,G,F,2 | 
[V:1] G3F/E/ | 
[V:2] e4 | 
[V:3] c2=B2- | 
[V:4] E,4 | 
[V:1] D2E2 | 
[V:2] z4 | 
[V:3] =B2c2- | 
[V:4] G,2C,2 | 
[V:1] F4 | 
[V:2] z4 | 
[V:3] c2=B2 | 
[V:4] D,4 | 
[V:1] E4 | 
[V:2] G2c2- | 
[V:3] c4 | 
[V:4] C,4 | 
[V:1] z2G2 | 
[V:2] cde2 | 
[V:3] z4 | 
[V:4] C4 | 
[V:1] A2_B2- | 
[V:2] f4 | 
[V:3] z4 | 
[V:4] A,2G,2- | 
[V:1] B2A2 | 
[V:2] e2f2 | 
[V:3] z4 | 
[V:4] G,2F,2 | 
[V:1] z2A2- | 
[V:2] z2f2- | 
[V:3] z2c2- | 
[V:4] z2F,2- | 
[V:1] AAA2 | 
[V:2] fff2 | 
[V:3] ccc2 | 
[V:4] F,F,F,2 | 
[V:1] G2G2- | 
[V:2] d2c2 | 
[V:3] _B2G2 | 
[V:4] G,2E,2 | 
[V:1] G2^F2 | 
[V:2] d3c | 
[V:3] A4 | 
[V:4] D,4 | 
[V:1] G4 | 
[V:2] _BAG2 | 
[V:3] G4 | 
[V:4] D3C | 
[V:1] _B4 | 
[V:2] z2d2 | 
[V:3] d3_B | 
[V:4] _B,A,G,2 | 
[V:1] A2G2- | 
[V:2] f2c2- | 
[V:3] c4 | 
[V:4] F,2E,2 | 
[V:1] GFF2- | 
[V:2] c2B2 | 
[V:3] F4 | 
[V:4] D,4 | 
[V:1] F2E2 | 
[V:2] c4- | 
[V:3] G4 | 
[V:4] C,4 | 
[V:1] F4 ||  
[V:2] c4 ||  
[V:3] F4 ||  
[V:4] F,4 ||  
[V:1] z4 | 
[V:2] z4 | 
[V:3] F4 | 
[V:4] z4 | 
[V:1] z4 | 
[V:2] G4 | 
[V:3] _B2_B2 | 
[V:4] z4 | 
[V:1] F4 | 
[V:2] _B2_B2 | 
[V:3] d4 | 
[V:4] _B,,4 | 
[V:1] G2G2 | 
[V:2] _B4 | 
[V:3] z4 | 
[V:4] _E,2E,2 | 
[V:1] G4 | 
[V:2] z2_e2- | 
[V:3] _B4 | 
[V:4] _E,4 | 
[V:1] z4 | 
[V:2] ed/c/d2 | 
[V:3] A2A2 | 
[V:4] F,2F,2 | 
[V:1] _B4 | 
[V:2] g4 | 
[V:3] G4 | 
[V:4] _E,2E,2 | 
[V:1] _B2A2 | 
[V:2] f4 | 
[V:3] d3c | 
[V:4] z2F,2 | 
[V:1] G4 | 
[V:2] d4- | 
[V:3] _B4 | 
[V:4] G,4 | 
[V:1] A4 | 
[V:2] d4 | 
[V:3] A4 | 
[V:4] D,4 | 
[V:1] D2F2- | 
[V:2] d2d2- | 
[V:3] A2A2- | 
[V:4] D,2D,2- | 
[V:1] FFF2 | 
[V:2] ddd2 | 
[V:3] AAA2 | 
[V:4] D,D,D,2 | 
[V:1] G2A2- | 
[V:2] d2f2- | 
[V:3] _B2c2- | 
[V:4] G,2F,2- | 
[V:1] AGG2- | 
[V:2] fed2 | 
[V:3] c_BG2 | 
[V:4] F,G,G,2 | 
[V:1] GFED | 
[V:2] ed^cB | 
[V:3] z4 | 
[V:4] z4 | 
[V:1] E2E2 | 
[V:2] ^c3B/^c/ | 
[V:3] z4 | 
[V:4] A,2A,2 | 
[V:1] D2A2- | 
[V:2] d2f2- | 
[V:3] G2F2- | 
[V:4] _B,2C2- | 
[V:1] AGG2- | 
[V:2] fed2 | 
[V:3] F2G2 | 
[V:4] C_B,G,2 | 
[V:1] G2^F2 | 
[V:2] d4 | 
[V:3] D2A2 | 
[V:4] A,2D,2 | 
[V:1] G4 | 
[V:2] _B2_e2 | 
[V:3] G_B2c | 
[V:4] _E,3D,/C,/ | 
[V:1] _B4 | 
[V:2] f4- | 
[V:3] d4 | 
[V:4] _B,,3C, | 
[V:1] A2G2 | 
[V:2] f2e2 | 
[V:3] d2c_B | 
[V:4] D,2E,2 | 
[V:1] c3_B | 
[V:2] c2f2- | 
[V:3] A4 | 
[V:4] F,4 | 
[V:1] A2G2- | 
[V:2] f2d2 | 
[V:3] c2_B2 | 
[V:4] F,2G,2 | 
[V:1] G2F2- | 
[V:2] cc2B | 
[V:3] c2F2 | 
[V:4] C,2D,2 | 
[V:1] F2E2 | 
[V:2] c4- | 
[V:3] G4 | 
[V:4] C,4 | 
[V:1] F4 |]  
[V:2] c4 |]  
[V:3] F4 |]  
[V:4] F,4 |]  


